Dominus_Dark_Funeral/scalable/apps/fontforge.svg

<svg xmlns="http://www.w3.org/2000/svg" xmlns:xlink="http://www.w3.org/1999/xlink" width="48" height="48" viewBox="0 0 12.7 12.7"><defs><radialGradient xlink:href="#a" id="b" cx="9.68" cy="2.68" fx="9.68" fy="2.68" r="5.35" gradientTransform="matrix(.06616 1.06853 -1.16839 .07235 12.18 -8.48)" gradientUnits="userSpaceOnUse"/><linearGradient id="a"><stop offset="0" stop-color="#b7bec8"/><stop offset="1" stop-color="#535d6c"/></linearGradient></defs><path d="M6.36.1c-1.54 0-2.78.28-3.7.86a3.67 3.67 0 0 0-1.65 3.26c0 1.91 1.54 4.47 2 5.2.55.85 1.14 1.61 1.66 2.16.68.7 1.2 1.03 1.69 1.03.48 0 1-.33 1.69-1.03A15.2 15.2 0 0 0 9.7 9.43c.47-.74 2-3.3 2-5.21 0-1.42-.57-2.54-1.65-3.25A6.75 6.75 0 0 0 6.35.1z" fill="url(#b)"/><path d="M1.05 3.9c0 .1-.04.2-.04.32 0 1.91 1.54 4.47 2 5.2.55.85 1.14 1.61 1.66 2.16.68.7 1.2 1.03 1.69 1.03.48 0 1-.33 1.69-1.03A15.2 15.2 0 0 0 9.7 9.43c.47-.74 2-3.3 2-5.21 0-.11-.02-.21-.03-.32a5.5 5.5 0 0 1-.21 1.3c-.15.53-.36 1.05-.58 1.53-.44.97-.95 1.8-1.18 2.17a15.2 15.2 0 0 1-1.65 2.15 4.9 4.9 0 0 1-.92.78c-.28.17-.53.25-.77.25s-.5-.08-.77-.25a4.76 4.76 0 0 1-.92-.78A14.41 14.41 0 0 1 3.02 8.9a19.2 19.2 0 0 1-1.18-2.17c-.22-.48-.43-1-.58-1.52a5.66 5.66 0 0 1-.21-1.31z" opacity=".5"/><path d="M8.4 1.72c-1.17 0-1.22 1.36-1.25 2.26H5.78c0-.52-.15-1.87.49-1.87.28 0 .28.53.72.53.2 0 .3-.15.25-.31-.1-.35-.6-.51-.9-.51-1.15 0-1.2 1.26-1.23 2.16h-.8l-.05.2h.84l-.05 3.44c0 .32.03 1.27-.3 1.27-.05 0-.11-.05-.13-.1v-.01c-.03-.11.05-.2.02-.32-.04-.14-.24-.22-.37-.22-.25 0-.33.17-.28.37.07.24.37.53.8.53.83 0 .95-1.13.96-1.78L5.8 4.2h1.37l-.09 3.43c.02.32.04 1.28-.28 1.28-.05 0-.11-.05-.13-.1V8.8c-.04-.11.05-.2.02-.32-.04-.14-.24-.22-.37-.22-.25 0-.33.17-.28.37.08.24.37.53.8.53.83 0 .95-1.13.95-1.78l.04-3.18h.78l.05-.2h-.83c0-.52-.13-1.96.5-1.96.29 0 .29.51.74.51.2 0 .29-.15.25-.32-.1-.33-.62-.5-.9-.5z" fill="#333"/><path d="M8.2 1.53c-1.18 0-1.23 1.36-1.26 2.26H5.57c0-.52-.15-1.87.49-1.87.28 0 .28.53.72.53.2 0 .3-.15.25-.31-.1-.35-.61-.51-.9-.51-1.15 0-1.2 1.26-1.23 2.16h-.8L4.05 4h.84l-.05 3.43c0 .32.03 1.27-.3 1.27-.05 0-.11-.05-.13-.1v-.01c-.03-.11.05-.2.02-.32-.04-.14-.24-.22-.37-.22-.25 0-.33.17-.28.37.07.24.37.53.8.53.83 0 .95-1.13.96-1.78L5.58 4h1.36l-.08 3.43c.02.32.04 1.28-.28 1.28-.05 0-.11-.05-.13-.1V8.6c-.04-.11.05-.2.02-.32-.04-.14-.24-.22-.37-.22-.25 0-.33.17-.28.37.08.24.37.53.8.53.83 0 .95-1.13.95-1.78L7.61 4h.78l.04-.2h-.82c0-.52-.13-1.96.5-1.96.29 0 .29.51.74.51.2 0 .29-.15.25-.32-.1-.33-.62-.5-.9-.5z" fill="#fff"/></svg>

<?xml version="1.0" encoding="UTF-8" standalone="no"?>
<svg
   xmlns:dc="http://purl.org/dc/elements/1.1/"
   xmlns:cc="http://creativecommons.org/ns#"
   xmlns:rdf="http://www.w3.org/1999/02/22-rdf-syntax-ns#"
   xmlns:svg="http://www.w3.org/2000/svg"
   xmlns="http://www.w3.org/2000/svg"
   xmlns:xlink="http://www.w3.org/1999/xlink"
   xmlns:sodipodi="http://sodipodi.sourceforge.net/DTD/sodipodi-0.dtd"
   xmlns:inkscape="http://www.inkscape.org/namespaces/inkscape"
   width="48"
   height="48"
   viewBox="0 0 12.7 12.7"
   version="1.1"
   id="svg18"
   sodipodi:docname="fontforge.svg"
   inkscape:version="0.92.4 (5da689c313, 2019-01-14)">
  <metadata
     id="metadata22">
    <rdf:RDF>
      <cc:Work
         rdf:about="">
        <dc:format>image/svg+xml</dc:format>
        <dc:type
           rdf:resource="http://purl.org/dc/dcmitype/StillImage" />
        <dc:title></dc:title>
      </cc:Work>
    </rdf:RDF>
  </metadata>
  <sodipodi:namedview
     pagecolor="#ffffff"
     bordercolor="#666666"
     borderopacity="1"
     objecttolerance="10"
     gridtolerance="10"
     guidetolerance="10"
     inkscape:pageopacity="0"
     inkscape:pageshadow="2"
     inkscape:window-width="1112"
     inkscape:window-height="480"
     id="namedview20"
     showgrid="false"
     inkscape:zoom="4.9166667"
     inkscape:cx="2.1355932"
     inkscape:cy="24"
     inkscape:window-x="0"
     inkscape:window-y="25"
     inkscape:window-maximized="0"
     inkscape:current-layer="svg18" />
  <defs
     id="defs8">
    <radialGradient
       xlink:href="#a"
       id="b"
       cx="9.68"
       cy="2.68"
       fx="9.68"
       fy="2.68"
       r="5.35"
       gradientTransform="matrix(0.06616,1.06853,-1.16839,0.07235,12.18,-8.48)"
       gradientUnits="userSpaceOnUse" />
    <linearGradient
       id="a">
      <stop
         offset="0"
         stop-color="#b7bec8"
         id="stop3" />
      <stop
         offset="1"
         stop-color="#535d6c"
         id="stop5" />
    </linearGradient>
  </defs>
  <path
     d="M 6.36,0.1 C 4.82,0.1 3.58,0.38 2.66,0.96 A 3.67,3.67 0 0 0 1.01,4.22 c 0,1.91 1.54,4.47 2,5.2 0.55,0.85 1.14,1.61 1.66,2.16 0.68,0.7 1.2,1.03 1.69,1.03 0.48,0 1,-0.33 1.69,-1.03 A 15.2,15.2 0 0 0 9.7,9.43 c 0.47,-0.74 2,-3.3 2,-5.21 0,-1.42 -0.57,-2.54 -1.65,-3.25 A 6.75,6.75 0 0 0 6.35,0.1 Z"
     id="path10"
     style="fill:url(#b)"
     inkscape:connector-curvature="0" />
  <path
     d="m 1.05,3.9 c 0,0.1 -0.04,0.2 -0.04,0.32 0,1.91 1.54,4.47 2,5.2 0.55,0.85 1.14,1.61 1.66,2.16 0.68,0.7 1.2,1.03 1.69,1.03 0.48,0 1,-0.33 1.69,-1.03 A 15.2,15.2 0 0 0 9.7,9.43 c 0.47,-0.74 2,-3.3 2,-5.21 0,-0.11 -0.02,-0.21 -0.03,-0.32 A 5.5,5.5 0 0 1 11.46,5.2 C 11.31,5.73 11.1,6.25 10.88,6.73 10.44,7.7 9.93,8.53 9.7,8.9 A 15.2,15.2 0 0 1 8.05,11.05 4.9,4.9 0 0 1 7.13,11.83 C 6.85,12 6.6,12.08 6.36,12.08 6.12,12.08 5.86,12 5.59,11.83 A 4.76,4.76 0 0 1 4.67,11.05 14.41,14.41 0 0 1 3.02,8.9 19.2,19.2 0 0 1 1.84,6.73 C 1.62,6.25 1.41,5.73 1.26,5.21 A 5.66,5.66 0 0 1 1.05,3.9 Z"
     id="path12"
     inkscape:connector-curvature="0"
     style="opacity:0.5" />
  <path
     d="M 8.4,1.72 C 7.23,1.72 7.18,3.08 7.15,3.98 H 5.78 c 0,-0.52 -0.15,-1.87 0.49,-1.87 0.28,0 0.28,0.53 0.72,0.53 0.2,0 0.3,-0.15 0.25,-0.31 C 7.14,1.98 6.64,1.82 6.34,1.82 5.19,1.82 5.14,3.08 5.11,3.98 H 4.31 L 4.26,4.18 H 5.1 L 5.05,7.62 c 0,0.32 0.03,1.27 -0.3,1.27 C 4.7,8.89 4.64,8.84 4.62,8.79 V 8.78 C 4.59,8.67 4.67,8.58 4.64,8.46 4.6,8.32 4.4,8.24 4.27,8.24 4.02,8.24 3.94,8.41 3.99,8.61 4.06,8.85 4.36,9.14 4.79,9.14 5.62,9.14 5.74,8.01 5.75,7.36 L 5.8,4.2 H 7.17 L 7.08,7.63 C 7.1,7.95 7.12,8.91 6.8,8.91 6.75,8.91 6.69,8.86 6.67,8.81 V 8.8 C 6.63,8.69 6.72,8.6 6.69,8.48 6.65,8.34 6.45,8.26 6.32,8.26 6.07,8.26 5.99,8.43 6.04,8.63 6.12,8.87 6.41,9.16 6.84,9.16 7.67,9.16 7.79,8.03 7.79,7.38 L 7.83,4.2 H 8.61 L 8.66,4 H 7.83 c 0,-0.52 -0.13,-1.96 0.5,-1.96 0.29,0 0.29,0.51 0.74,0.51 0.2,0 0.29,-0.15 0.25,-0.32 C 9.22,1.9 8.7,1.73 8.42,1.73 Z"
     id="path14"
     inkscape:connector-curvature="0"
     style="fill:#333333" />
  <path
     d="M 8.2,1.53 C 7.02,1.53 6.97,2.89 6.94,3.79 H 5.57 c 0,-0.52 -0.15,-1.87 0.49,-1.87 0.28,0 0.28,0.53 0.72,0.53 0.2,0 0.3,-0.15 0.25,-0.31 C 6.93,1.79 6.42,1.63 6.13,1.63 4.98,1.63 4.93,2.89 4.9,3.79 H 4.1 L 4.05,4 H 4.89 L 4.84,7.43 C 4.84,7.75 4.87,8.7 4.54,8.7 4.49,8.7 4.43,8.65 4.41,8.6 V 8.59 C 4.38,8.48 4.46,8.39 4.43,8.27 4.39,8.13 4.19,8.05 4.06,8.05 3.81,8.05 3.73,8.22 3.78,8.42 3.85,8.66 4.15,8.95 4.58,8.95 5.41,8.95 5.53,7.82 5.54,7.17 L 5.58,4 H 6.94 L 6.86,7.43 C 6.88,7.75 6.9,8.71 6.58,8.71 6.53,8.71 6.47,8.66 6.45,8.61 V 8.6 C 6.41,8.49 6.5,8.4 6.47,8.28 6.43,8.14 6.23,8.06 6.1,8.06 5.85,8.06 5.77,8.23 5.82,8.43 5.9,8.67 6.19,8.96 6.62,8.96 7.45,8.96 7.57,7.83 7.57,7.18 L 7.61,4 H 8.39 L 8.43,3.8 H 7.61 C 7.61,3.28 7.48,1.84 8.11,1.84 8.4,1.84 8.4,2.35 8.85,2.35 9.05,2.35 9.14,2.2 9.1,2.03 9,1.7 8.48,1.53 8.2,1.53 Z"
     id="path16"
     inkscape:connector-curvature="0"
     style="fill:#ffffff" />
</svg>
